!!!COM: Palestrina, Giovanni Perluigi da
!!!OPR: Missa Descendit angelus Domini
!!!OMD: Benedictus
!!!OTL: Hosanna
**kern	**kern	**kern	**kern
*Ibass	*Itenor	*Icalto	*Icant
!Bassus	!Tenor	!Altus	!Cantus
*clefF4	*clefGv2	*clefG2	*clefG2
*k[b-]	*k[b-]	*k[b-]	*k[b-]
*F:ion	*F:ion	*F:ion	*F:ion
*M3/2	*M3/2	*M3/2	*M3/2
=34	=34	=34	=34
1r	1r	1f	2r
.	.	.	2f
2r	2r	2f	2a
=35	=35	=35	=35
1r	1r	2g	2b-
.	.	2.a	2.cc
2r	2r	.	.
.	.	4f	4a
=36	=36	=36	=36
1r	2r	4g	4b-
.	.	4a	4cc
.	2B-	1b-	1dd
2r	2B-	.	.
=37	=37	=37	=37
1r	2c	2.a	2cc
.	2d	.	1b-
.	.	8g	.
.	.	8f	.
2r	2e	2g	.
=38	=38	=38	=38
1F	2f	2a	2a
.	2c	2a	2ff
2A	2c	2cc	2ee
=39	=39	=39	=39
2B-	2d	2b-	2dd
2.c	2.e	2g	1cc
.	.	2a	.
4A	4c	.	.
=40	=40	=40	=40
4B-	4d	2f	2b-
4c	4e	.	.
1d	2f	4d	2.a
.	.	4e	.
.	2f	4f	.
.	.	4g	4b-
=41	=41	=41	=41
2c	2e	1a	2cc
1B-	1d	.	1dd
.	.	2g	.
=42	=42	=42	=42
2.A	2e	2.a	1cc
.	2a	.	.
4B-	.	4g	.
2c	2g	2e	2r
=43	=43	=43	=43
1F	2a	2r	1cc
.	4a	2f	.
.	4g	.	.
2r	4f	2a	2cc
.	4e	.	.
=44	=44	=44	=44
1r	2d	2b-	2dd
.	4c	2.cc	2.ee
.	4B-	.	.
2r	2A	.	.
.	.	4a	4cc
=45	=45	=45	=45
1r	2G	2b-	4dd
.	.	.	4ee
.	4d	2.a	1ff
.	4e	.	.
2r	4f	.	.
.	4d	4f	.
=46	=46	=46	=46
1r	4e	4g	2ee
.	4f	4a	.
.	2g	2b-	2.dd
2r	2e	2g	.
.	.	.	4cc
=47	=47	=47	=47
2F	2f	1a	1cc
2F	1d	.	.
2G	.	4g	2b-
.	.	4f	.
=48	=48	=48	=48
2.A	2c	2e	2.cc
.	2f	2c	.
4F	.	.	4a
4G	2e	2r	4b-
4A	.	.	4cc
=49	=49	=49	=49
1B-	2d	1f	1dd
.	2B-	.	.
2B-	2d	2f	2b-
=50	=50	=50	=50
2G	2e	2g	2r
1F	2.f	2.a	2r
.	.	.	2ff
.	4d	4f	.
=51	=51	=51	=51
2c	4e	4g	2ee
.	4f	4a	.
2G	2g	1b-	1dd
2B-	[2f	.	.
=52	=52	=52	=52
2F	4f]	2a	2cc
.	4e	.	.
2G	4d	2.g	2.b-
.	4c	.	.
2D	2d	.	.
.	.	4f	4a
=53	=53	=53	=53
2F	1.c	1f	2a
1C	.	.	1g
.	.	2e	.
=54	=54	=54	=54
1.F	1.c	1.f	1.a
==	==	==	==
*-	*-	*-	*-
!!!CDT: 1525/^1526/-1594/2/2
!!!OCY: Italia
!!!AGN: Mass (Parody)
!!!AST: renaissance, vocal
!!!ASW: Motet 1532 (Penet)
!!!PWK: Masses, Book 11
!!!RNB: Cadence finals: C
!!!YOR: Le Opere Complete, v. 28, p. 1
!!!YOO: Rome, Italy: Fratelli Scalera
!!!END: 1992//
!!!EED: John Miller
!!!YEC: Copyright 2000, John Miller
!!!YEN: United States of America
!!!YEM: Rights to all derivative electronic formats reserved.
!!!YEM: Refer to licensing agreement for further details.
!!!YEM: This file must be accompanied by the licensing agreement.
!!!YEM: A copy of the licensing agreement may be found at http://www.music-cog.ohio-state.edu/HumdrumDatabases/Palestrina/license.txt
!!!EMD: converted to Humdrum by Bret Aarden
